icons/mobile/72/svg/private-mode-fill-72.svg

<!-- This Source Code Form is subject to the terms of the Mozilla Public
   - License, v. 2.0. If a copy of the MPL was not distributed with this
   - file, You can obtain one at http://mozilla.org/MPL/2.0/. -->
<svg width="72" height="72" viewBox="0 0 72 72" fill="none" xmlns="http://www.w3.org/2000/svg">
    <path d="M65.7415 25.6932C65.8915 22.7233 63.8816 20.0744 60.9807 19.4144C53.7959 17.7825 46.2721 19.8074 40.8752 24.8263L39.9513 25.6842C38.8743 26.6862 37.4583 27.2412 35.9884 27.2412C34.5154 27.2412 33.0995 26.6832 32.0225 25.6812L31.1195 24.8413C25.7227 19.8134 18.1899 17.7855 10.9991 19.4174H10.9931C8.10718 20.0774 6.10324 22.7143 6.24124 25.6782V25.6962C5.50026 28.6211 6.64323 39.4208 7.29121 41.1188C8.59317 47.9796 14.2 53.1394 20.9198 53.1394C24.2767 53.1394 27.3156 51.7985 29.7186 49.6565L31.1825 48.4026C33.8854 46.0896 37.8603 46.0566 40.5992 48.3276L42.8012 50.1455V50.1365C45.1171 51.9995 47.955 53.1394 51.0629 53.1394C57.7828 53.1394 63.3896 47.9796 64.6916 41.1188C65.3395 39.4178 66.5245 28.6631 65.7415 25.6932ZM29.3706 37.2159C27.7716 39.0248 25.2907 40.1888 22.5008 40.1888C19.7109 40.1888 17.2299 39.0248 15.631 37.2159C14.791 36.2679 14.791 34.774 15.631 33.823C17.2299 32.014 19.7109 30.8501 22.5008 30.8501C25.2907 30.8501 27.7716 32.014 29.3706 33.823C30.2105 34.774 30.2105 36.2679 29.3706 37.2159ZM56.3698 37.2159C54.7708 39.0248 52.2899 40.1888 49.5 40.1888C46.7101 40.1888 44.2291 39.0248 42.6302 37.2159C41.7902 36.2679 41.7902 34.774 42.6302 33.823C44.2291 32.014 46.7101 30.8501 49.5 30.8501C52.2899 30.8501 54.7708 32.014 56.3698 33.823C57.2098 34.774 57.2098 36.2679 56.3698 37.2159Z" fill="black" />
</svg>

<!-- This Source Code Form is subject to the terms of the Mozilla Public
   - License, v. 2.0. If a copy of the MPL was not distributed with this
   - file, You can obtain one at http://mozilla.org/MPL/2.0/. -->
<svg xmlns="http://www.w3.org/2000/svg" width="72" height="72" fill="none" viewBox="0 0 72 72">
    <path fill="#000" d="M65.742 25.693a6.126 6.126 0 0 0-4.761-6.279 22.27 22.27 0 0 0-20.106 5.412l-.924.858a5.821 5.821 0 0 1-7.929-.003l-.902-.84A22.28 22.28 0 0 0 11 19.417h-.007a6.13 6.13 0 0 0-4.752 6.261v.018c-.74 2.925.402 13.725 1.05 15.423 1.302 6.86 6.909 12.02 13.629 12.02 3.357 0 6.396-1.34 8.799-3.483l1.463-1.253a7.31 7.31 0 0 1 9.417-.075l2.202 1.817v-.009c2.316 1.863 5.154 3.003 8.262 3.003 6.72 0 12.327-5.16 13.629-12.02.648-1.701 1.833-12.456 1.05-15.426M29.37 37.216c-1.6 1.809-4.08 2.973-6.87 2.973s-5.271-1.164-6.87-2.973c-.84-.948-.84-2.442 0-3.393 1.599-1.809 4.08-2.973 6.87-2.973s5.27 1.164 6.87 2.973c.84.951.84 2.445 0 3.393m26.999 0c-1.6 1.809-4.08 2.973-6.87 2.973s-5.27-1.164-6.87-2.973c-.84-.948-.84-2.442 0-3.393 1.6-1.809 4.08-2.973 6.87-2.973s5.27 1.164 6.87 2.973c.84.951.84 2.445 0 3.393" />
</svg>
